icons/midnadark/actions/24/snap-nodes-rotation-center.svg

<?xml version="1.0" encoding="UTF-8" standalone="no"?>
<!-- Created with Inkscape (http://www.inkscape.org/) -->

<svg
   xmlns:dc="http://purl.org/dc/elements/1.1/"
   xmlns:cc="http://creativecommons.org/ns#"
   xmlns:rdf="http://www.w3.org/1999/02/22-rdf-syntax-ns#"
   xmlns:svg="http://www.w3.org/2000/svg"
   xmlns="http://www.w3.org/2000/svg"
   xmlns:sodipodi="http://sodipodi.sourceforge.net/DTD/sodipodi-0.dtd"
   xmlns:inkscape="http://www.inkscape.org/namespaces/inkscape"
   width="22"
   height="22"
   id="svg3869"
   version="1.1"
   inkscape:version="0.91 r13725"
   sodipodi:docname="snap-nodes-rotation-center.svg">
  <defs
     id="defs3871">
    <style
       type="text/css"
       id="current-color-scheme">
      .ColorScheme-Text {
        color:#f2f2f2;
      }
      .ColorScheme-Background {
        color:#eff0f1;
      }
      .ColorScheme-Highlight {
        color:#3daee9;
      }
      .ColorScheme-ViewText {
        color:#31363b;
      }
      .ColorScheme-ViewBackground {
        color:#fcfcfc;
      }
      .ColorScheme-ViewHover {
        color:#93cee9;
      }
      .ColorScheme-ViewFocus{
        color:#3daee9;
      }
      .ColorScheme-ButtonText {
        color:#31363b;
      }
      .ColorScheme-ButtonBackground {
        color:#eff0f1;
      }
      .ColorScheme-ButtonHover {
        color:#93cee9;
      }
      .ColorScheme-ButtonFocus{
        color:#3daee9;
      }
      </style>
  </defs>
  <sodipodi:namedview
     id="base"
     pagecolor="#ffffff"
     bordercolor="#666666"
     borderopacity="1.0"
     inkscape:pageopacity="0.0"
     inkscape:pageshadow="2"
     inkscape:zoom="15.999999"
     inkscape:cx="10.259675"
     inkscape:cy="4.8457342"
     inkscape:document-units="px"
     inkscape:current-layer="layer1"
     showgrid="true"
     fit-margin-top="0"
     fit-margin-left="0"
     fit-margin-right="0"
     fit-margin-bottom="0"
     inkscape:window-width="1920"
     inkscape:window-height="1017"
     inkscape:window-x="0"
     inkscape:window-y="0"
     inkscape:window-maximized="1"
     inkscape:showpageshadow="false"
     inkscape:snap-bbox="true"
     inkscape:object-nodes="true"
     inkscape:snap-global="true">
    <inkscape:grid
       type="xygrid"
       id="grid4132" />
    <sodipodi:guide
       position="2,20.000017"
       orientation="18,0"
       id="guide4138" />
    <sodipodi:guide
       position="2,2.0000174"
       orientation="0,18"
       id="guide4140" />
    <sodipodi:guide
       position="20,2.0000174"
       orientation="-18,0"
       id="guide4142" />
    <sodipodi:guide
       position="20,20.000017"
       orientation="0,-18"
       id="guide4144" />
    <sodipodi:guide
       position="3,19.000017"
       orientation="16,0"
       id="guide4146" />
    <sodipodi:guide
       position="3,3.0000174"
       orientation="0,16"
       id="guide4148" />
    <sodipodi:guide
       position="19,3.0000174"
       orientation="-16,0"
       id="guide4150" />
    <sodipodi:guide
       position="19,19.000017"
       orientation="0,-16"
       id="guide4152" />
  </sodipodi:namedview>
  <metadata
     id="metadata3874">
    <rdf:RDF>
      <cc:Work
         rdf:about="">
        <dc:format>image/svg+xml</dc:format>
        <dc:type
           rdf:resource="http://purl.org/dc/dcmitype/StillImage" />
        <dc:title />
      </cc:Work>
    </rdf:RDF>
  </metadata>
  <g
     inkscape:label="Capa 1"
     inkscape:groupmode="layer"
     id="layer1"
     transform="translate(-326,-534.3622)">
    <path
       style="color:#f2f2f2;text-decoration:none;text-decoration-line:none;text-decoration-style:solid;text-decoration-color:#000000;clip-rule:nonzero;display:inline;overflow:visible;visibility:visible;opacity:1;isolation:auto;mix-blend-mode:normal;color-interpolation:sRGB;color-interpolation-filters:linearRGB;solid-color:#000000;solid-opacity:1;fill:currentColor;fill-opacity:1;fill-rule:nonzero;stroke:none;stroke-width:1;stroke-linecap:butt;stroke-linejoin:miter;stroke-miterlimit:4;stroke-dasharray:none;stroke-dashoffset:0;stroke-opacity:1;color-rendering:auto;image-rendering:auto;shape-rendering:auto;text-rendering:auto;enable-background:accumulate"
       d="M 9.5996094 3.0507812 L 8.8925781 3.7578125 L 11.185547 6.0507812 L 8.9003906 6.0507812 L 8 6.0507812 L 8 7.0507812 L 8.9003906 7.0507812 L 11.185547 7.0507812 L 8.8925781 9.34375 L 9.5996094 10.050781 L 12.892578 6.7578125 L 13.099609 6.5507812 L 12.892578 6.34375 L 9.5996094 3.0507812 z M 6.5 6.0507812 C 6.223 6.0507812 6 6.2737812 6 6.5507812 C 6 6.8277813 6.223 7.0507812 6.5 7.0507812 C 6.777 7.0507812 7 6.8277813 7 6.5507812 C 7 6.2737812 6.777 6.0507812 6.5 6.0507812 z M 3.5 8.0507812 C 3.223 8.0507812 3 8.2737812 3 8.5507812 C 3 8.8277813 3.223 9.0507812 3.5 9.0507812 C 3.777 9.0507812 4 8.8277813 4 8.5507812 C 4 8.2737812 3.777 8.0507812 3.5 8.0507812 z M 2.5 11.050781 C 2.223 11.050781 2 11.273781 2 11.550781 C 2 11.827781 2.223 12.050781 2.5 12.050781 C 2.777 12.050781 3 11.827781 3 11.550781 C 3 11.273781 2.777 11.050781 2.5 11.050781 z M 3.5 14.050781 C 3.223 14.050781 3 14.273781 3 14.550781 C 3 14.827781 3.223 15.050781 3.5 15.050781 C 3.777 15.050781 4 14.827781 4 14.550781 C 4 14.273781 3.777 14.050781 3.5 14.050781 z M 6.5 16.050781 C 6.223 16.050781 6 16.273781 6 16.550781 C 6 16.827781 6.223 17.050781 6.5 17.050781 C 6.777 17.050781 7 16.827781 7 16.550781 C 7 16.273781 6.777 16.050781 6.5 16.050781 z "
       transform="translate(326,534.3622)"
       id="rect4144" />
    <path
       style="fill:#1d99f3;fill-opacity:1;stroke:none;stroke-width:0.1;stroke-linecap:square;stroke-miterlimit:4;stroke-dasharray:none;stroke-opacity:1"
       d="m 340,544.3622 a 4,4 0 0 0 -4,4 4,4 0 0 0 4,4 4,4 0 0 0 4,-4 4,4 0 0 0 -4,-4 z m 0,1 a 3,3 0 0 1 3,3 3,3 0 0 1 -3,3 3,3 0 0 1 -3,-3 3,3 0 0 1 3,-3 z"
       id="path4145"
       inkscape:connector-curvature="0" />
  </g>
</svg>

<svg xmlns="http://www.w3.org/2000/svg" viewBox="0 0 22 22"><g transform="translate(-326-534.36)"><path d="m9.6 3.051l-.707.707 2.293 2.293h-2.285-.9v1h.9 2.285l-2.293 2.293.707.707 3.293-3.293.207-.207-.207-.207-3.293-3.293m-3.1 3c-.277 0-.5.223-.5.5 0 .277.223.5.5.5.277 0 .5-.223.5-.5 0-.277-.223-.5-.5-.5m-3 2c-.277 0-.5.223-.5.5 0 .277.223.5.5.5.277 0 .5-.223.5-.5 0-.277-.223-.5-.5-.5m-1 3c-.277 0-.5.223-.5.5 0 .277.223.5.5.5.277 0 .5-.223.5-.5 0-.277-.223-.5-.5-.5m1 3c-.277 0-.5.223-.5.5 0 .277.223.5.5.5.277 0 .5-.223.5-.5 0-.277-.223-.5-.5-.5m3 2c-.277 0-.5.223-.5.5 0 .277.223.5.5.5.277 0 .5-.223.5-.5 0-.277-.223-.5-.5-.5" transform="translate(326 534.36)" mix-blend-mode="normal" solid-color="#000000" color-interpolation-filters="linearRGB" color="#f2f2f2" image-rendering="auto" color-rendering="auto" isolation="auto" color-interpolation="sRGB" solid-opacity="1" shape-rendering="auto"/><path d="m340 544.3622a4 4 0 0 0 -4 4 4 4 0 0 0 4 4 4 4 0 0 0 4 -4 4 4 0 0 0 -4 -4m0 1a3 3 0 0 1 3 3 3 3 0 0 1 -3 3 3 3 0 0 1 -3 -3 3 3 0 0 1 3 -3" fill="#1d99f3"/></g></svg>
